X:1
T:I Bring Thee All
T:I Bring Thee All
T:Evangeline Cory Booth
T:Evangeline Cory Booth, 1927
C:Evangeline Cory Booth
%%score ( 1 2 ) ( 3 4 )
L:1/8
M:4/4
K:G
V:1 treble 
V:2 treble 
V:3 bass 
V:4 bass 
V:1
 [B,D]4 [^A,E]2 [B,D]2 | [Dc]6 [DB]2 | [EB]2 [EA]2 [CE]2 [CF]2 | [CA]4 [B,G]4 | [CE]4 [CF]2 [CG]2 | %5
w: 1.~Fa- ther of|love, of|jus- tice and of|mer- cy,|Thou art the|
w: 2.~O Thou, of|whom the|heav’ns are but a|sym- bol,|Be Thou the|
w: 3.~O Man of|Sor- rows,|pray- ing in the|gar- den,|Thy sweat as|
 D6 [DB]2 | [^CB]2 [CA]2 [CE]2 [CA]2 | [DA]8 | [A,D]4 [A,E]2 D2 | [Dc]6 [DB]2 | %10
w: dawn, the|star at e- ven-|tide;|Show Thou Thy|face, And|
w: sun that|draws my heart to|Thee;|Be Thou the|light the|
w: blood falls|down up- on the|ground.|In that dark|a- go-|
 [EB]2 [EA]2 [CG]2 [CF]2 | [CA]4 [B,G]4 | [CG]4 [^A,F]2 [A,E]2 | [B,D]6 [DB]2 | [^CB]4 [=CA]4 | %15
w: light my way to|Cal- v’ry,|There all my|sins in|Thee to|
w: stars at night do|kin- dle,|Thy love is|more than|all to|
w: ny my sins are|par- doned;|My sol- ace|in Thy|grief is|
 [B,G]8 | [DB]4 [DA]2 [DB]2 | [=Fd]6 [Ec]2 | ([DB]4 [CA]4) | [B,G]4 [B,D]2 [CG]2 | [DB]4 [CA]4 | %21
w: hide.|I bring Thee|all my|sins, *|None can for-|give but|
w: me.|I bring Thee|all my|heart, *|None do I|love like|
w: found.|I bring Thee|all my|tears, *|None can con-|sole like|
 [B,G]8 ||"^Refrain" [B,D]4 [^A,E]2 [B,D]2 | [Dc]8 | [CD]4 [CE]2 [CD]2 | [B,DB]8 | %26
w: Thee.|||||
w: Thee.|I bring Thee|all,|I bring Thee|all;|
w: Thee.|||||
 [DB]4 [Ec]2 [=FB]2 | [EB]2 [EA]2 [DG]2 [CE]2 | [B,D]4 [CA]4 | [B,G]8 |] %30
w: ||||
w: O, give Thy-|self to me, I|bring Thee|all.|
w: ||||
V:2
 x8 | x8 | x8 | x8 | x8 | D6 x2 | x8 | x8 | x6 D2 | x8 | x8 | x8 | x8 | x8 | x8 | x8 | x8 | x8 | %18
 x8 | x8 | x8 | x8 || x8 | x8 | x8 | x8 | x8 | x8 | x8 | x8 |] %30
V:3
 [G,,D,]4 [G,,^C,]2 [G,,D,]2 | [A,,F,]6 [B,,G,]2 | [C,^G,]2 [C,A,]2 [A,,A,]2 [A,,A,]2 | %3
 [D,F,]4 [G,,D,G,]4 | [C,G,]4 [C,^D,]2 [C,E,]2 | [B,,G,]6 [E,G,]2 | %6
 [A,,E,G,]2 [E,G,]2 [G,,G,]2 [E,G,]2 | [D,F,]8 | [C,F,]4 [C,F,]2 [B,,G,]2 | [A,,F,]6 [B,,G,]2 | %10
 [C,^G,]2 [C,A,]2 [A,,E,A,]2 [D,A,]2 | [^D,F,]4 [E,G,]4 | [C,E,]4 [^C,F,]2 [C,G,]2 | %13
 [D,G,]6 [E,G,]2 | [A,,E,G,]4 [D,F,]4 | [G,,D,G,]8 | G,4 [F,A,]2 [=F,G,]2 | [B,,^G,]6 [C,A,]2 | %18
 F,8 | [E,G,]4 [F,G,]2 [E,G,]2 | [D,G,]4 [D,F,]4 | [G,,D,G,]8 || [G,,D,]4 [G,,^C,]2 [G,,D,]2 | %23
 [A,,F,]8 | [D,F,]4 [A,,G,]2 [D,F,]2 | ([G,,G,]4 [=F,A,]4) | [E,^G,]4 [E,G,]2 [D,G,]2 | %27
 [C,^G,]2 [C,A,]2 [B,,B,]2 [C,=G,]2 | [D,G,]4 [D,F,]4 | [G,,D,G,]8 |] %30
V:4
 x8 | x8 | x8 | x8 | x8 | x8 | x8 | x8 | x8 | x8 | x8 | x8 | x8 | x8 | x8 | x8 | G,4 x4 | x8 | %18
 (D,4 ^D,4) | x8 | x8 | x8 || x8 | x8 | x8 | x8 | x8 | x8 | x8 | x8 |] %30

